packages/foundations/assets/icons/functional/images/file/image.svg

<svg xmlns="http://www.w3.org/2000/svg" width="32" height="32" fill="none"><path fill="#1A1C1F" fill-rule="evenodd" d="M5.597 3.043c-1.119.167-2.065.985-2.463 2.13l-.121.347V16c0 10.102.004 10.491.1 10.773a3.29 3.29 0 0 0 2.114 2.114c.282.096.671.1 10.773.1s10.491-.004 10.773-.1a3.3 3.3 0 0 0 1.285-.78c.386-.381.582-.683.791-1.221l.138-.353.014-10.359c.015-11.407.033-10.753-.314-11.459-.211-.428-.735-1.001-1.135-1.242a5 5 0 0 0-.659-.32l-.36-.14-10.32-.007c-5.676-.004-10.453.012-10.616.037m20.765 2.042c.234.098.558.47.597.685.017.097.024 3.237.016 6.977l-.015 6.8-2.24-2.22c-1.232-1.22-2.288-2.232-2.347-2.248-.44-.12-.711-.076-.994.162-.12.101-5.484 6.312-5.619 6.506-.005.007-1.25-.599-2.766-1.347-2.565-1.265-2.777-1.36-3.043-1.36-.278 0-.343.034-2.598 1.386L5.04 21.812l-.015-7.933c-.008-4.363-.001-8.012.016-8.109.037-.209.359-.584.586-.683.241-.105 20.484-.107 20.735-.002M10.48 7.044c-1.589.191-2.925 1.376-3.366 2.986-.141.515-.131 1.448.022 1.986.383 1.348 1.364 2.376 2.668 2.797.565.182 1.431.223 2.015.096.863-.189 1.733-.72 2.277-1.39.338-.416.699-1.172.814-1.7.128-.594.085-1.451-.104-2.032a4.02 4.02 0 0 0-4.326-2.743m1.391 2.172c.418.21.829.655.985 1.064.084.222.117.427.118.74.002.373-.021.482-.158.776-.292.623-.728.987-1.375 1.147-.874.216-1.791-.226-2.232-1.076-.152-.295-.166-.363-.167-.854-.002-.444.018-.577.119-.795a2.08 2.08 0 0 1 1.202-1.109c.431-.154 1.083-.108 1.508.107M26.986 24.32c-.001 1.861-.003 1.897-.12 2.102a1.6 1.6 0 0 1-.324.373l-.205.165-10.195.015c-5.608.009-10.275.001-10.373-.016-.238-.043-.633-.412-.705-.659-.033-.115-.05-.593-.04-1.176l.016-.982 2.453-1.483c1.35-.816 2.48-1.484 2.513-1.485.032 0 1.325.627 2.874 1.393 1.91.946 2.887 1.403 3.039 1.42.507.057.46.103 3.418-3.347l2.706-3.156 2.472 2.471 2.472 2.471z"/></svg>

<svg width="32" height="32" viewBox="0 0 32 32" fill="none" xmlns="http://www.w3.org/2000/svg"><path d="M5.597 3.043 C 4.478 3.210,3.532 4.028,3.134 5.173 L 3.013 5.520 3.013 16.000 C 3.013 26.102,3.017 26.491,3.113 26.773 C 3.462 27.799,4.201 28.538,5.227 28.887 C 5.509 28.983,5.898 28.987,16.000 28.987 C 26.102 28.987,26.491 28.983,26.773 28.887 C 27.286 28.712,27.696 28.463,28.058 28.107 C 28.444 27.726,28.640 27.424,28.849 26.886 L 28.987 26.533 29.001 16.174 C 29.016 4.767,29.034 5.421,28.687 4.715 C 28.476 4.287,27.952 3.714,27.552 3.473 C 27.387 3.374,27.091 3.230,26.893 3.153 L 26.533 3.013 16.213 3.006 C 10.537 3.002,5.760 3.018,5.597 3.043 M26.362 5.085 C 26.596 5.183,26.920 5.555,26.959 5.770 C 26.976 5.867,26.983 9.007,26.975 12.747 L 26.960 19.547 24.720 17.327 C 23.488 16.107,22.432 15.095,22.373 15.079 C 21.933 14.959,21.662 15.003,21.379 15.241 C 21.259 15.342,15.895 21.553,15.760 21.747 C 15.755 21.754,14.510 21.148,12.994 20.400 C 10.429 19.135,10.217 19.040,9.951 19.040 C 9.673 19.040,9.608 19.074,7.353 20.426 L 5.040 21.812 5.025 13.879 C 5.017 9.516,5.024 5.867,5.041 5.770 C 5.078 5.561,5.400 5.186,5.627 5.087 C 5.868 4.982,26.111 4.980,26.362 5.085 M10.480 7.044 C 8.891 7.235,7.555 8.420,7.114 10.030 C 6.973 10.545,6.983 11.478,7.136 12.016 C 7.519 13.364,8.500 14.392,9.804 14.813 C 10.369 14.995,11.235 15.036,11.819 14.909 C 12.682 14.720,13.552 14.189,14.096 13.519 C 14.434 13.103,14.795 12.347,14.910 11.819 C 15.038 11.225,14.995 10.368,14.806 9.787 C 14.211 7.955,12.410 6.813,10.480 7.044 M11.871 9.216 C 12.289 9.426,12.700 9.871,12.856 10.280 C 12.940 10.502,12.973 10.707,12.974 11.020 C 12.976 11.393,12.953 11.502,12.816 11.796 C 12.524 12.419,12.088 12.783,11.441 12.943 C 10.567 13.159,9.650 12.717,9.209 11.867 C 9.057 11.572,9.043 11.504,9.042 11.013 C 9.040 10.569,9.060 10.436,9.161 10.218 C 9.404 9.691,9.826 9.301,10.363 9.109 C 10.794 8.955,11.446 9.001,11.871 9.216 M26.986 24.320 C 26.985 26.181,26.983 26.217,26.866 26.422 C 26.800 26.536,26.654 26.704,26.542 26.795 L 26.337 26.960 16.142 26.975 C 10.534 26.984,5.867 26.976,5.769 26.959 C 5.531 26.916,5.136 26.547,5.064 26.300 C 5.031 26.185,5.014 25.707,5.024 25.124 L 5.040 24.142 7.493 22.659 C 8.843 21.843,9.973 21.175,10.006 21.174 C 10.038 21.174,11.331 21.801,12.880 22.567 C 14.790 23.513,15.767 23.970,15.919 23.987 C 16.426 24.044,16.379 24.090,19.337 20.640 L 22.043 17.484 24.515 19.955 L 26.987 22.426 26.986 24.320 " fill="#1A1C1F" stroke="none" fill-rule="evenodd"></path></svg>
